public/assets/img/home1/icon/d3-js-icon.svg

<svg width="24" height="24" viewBox="0 0 24 24" fill="none" xmlns="http://www.w3.org/2000/svg">
<mask id="mask0_1531_62674" style="mask-type:alpha" maskUnits="userSpaceOnUse" x="0" y="0" width="24" height="24">
<rect width="24" height="24" fill="#D9D9D9"/>
</mask>
<g mask="url(#mask0_1531_62674)">
</g>
<g clip-path="url(#clip0_1531_62674)">
<path d="M23.9545 17.493C23.9653 17.3853 23.973 17.2767 23.979 17.1674C23.9863 17.0381 16.4265 9.64941 16.4265 9.64941H16.2457C16.2457 9.64941 23.9083 17.9753 23.9545 17.4929V17.493Z" fill="url(#paint0_linear_1531_62674)"/>
<path d="M7.82534 14.9298C7.81531 14.9525 7.80538 14.9752 7.79506 14.9978C7.78438 15.0215 7.77331 15.0452 7.76234 15.0687C7.52141 15.5863 11.1361 19.2263 11.4268 18.7841C11.44 18.7646 11.4533 18.7439 11.4665 18.7244C11.4812 18.7013 11.4958 18.679 11.5103 18.6559C11.7428 18.2923 7.92856 14.6934 7.82534 14.9298Z" fill="url(#paint1_linear_1531_62674)"/>
<path d="M12.9333 20.0484C12.9231 20.0716 12.8504 20.1983 12.7839 20.2652C12.7726 20.2884 16.3126 23.9048 16.3126 23.9048H16.6313C16.6315 23.9048 13.3083 20.2013 12.9333 20.0484Z" fill="url(#paint2_linear_1531_62674)"/>
<path d="M23.9841 17.1018C23.8185 20.8822 20.7824 23.905 17.0729 23.905H16.5714L12.867 20.1457C13.1717 19.703 13.455 19.2444 13.7072 18.7662H17.0729C18.1374 18.7662 19.0036 17.8743 19.0036 16.7773C19.0036 15.6807 18.1374 14.7884 17.0729 14.7884H15.0812C15.233 13.9621 15.3159 13.1099 15.3159 12.2382C15.3159 11.3531 15.2315 10.4889 15.0742 9.64931H16.3114L23.9622 17.4149C23.9713 17.3108 23.9785 17.2068 23.9841 17.1018ZM2.01249 0.533325H0V5.67214H2.01249C5.52739 5.67214 8.38737 8.61745 8.38737 12.2382C8.38737 13.2232 8.17409 14.1583 7.79507 14.9978L11.4665 18.7244C12.672 16.8664 13.3767 14.6357 13.3767 12.2382C13.3767 5.78416 8.27862 0.533325 2.01249 0.533325Z" fill="url(#paint3_linear_1531_62674)"/>
<path d="M17.0729 0.533325H8.92361C10.9141 1.78517 12.5623 3.56024 13.6853 5.67214H17.0729C18.1374 5.67214 19.0036 6.56397 19.0036 7.66101C19.0036 8.75776 18.1374 9.64959 17.0729 9.64959H16.3117L23.9625 17.4151C23.9805 17.2045 23.9917 16.9925 23.9917 16.7773C23.9917 15.0449 23.3883 13.4557 22.3863 12.2189C23.3883 10.9826 23.9917 9.3931 23.9917 7.66101C23.9917 3.73097 20.8883 0.533325 17.0729 0.533325Z" fill="url(#paint4_linear_1531_62674)"/>
<path d="M16.5714 23.9051H8.98182C10.5095 22.9332 11.8303 21.6502 12.867 20.1458L16.5714 23.9051ZM11.4665 18.7246L7.79535 14.9979C6.78109 17.2433 4.57088 18.8049 2.01249 18.8049H0V23.9432H2.01249C5.95085 23.9432 9.42703 21.8681 11.4665 18.7246Z" fill="url(#paint5_linear_1531_62674)"/>
</g>
<defs>
<linearGradient id="paint0_linear_1531_62674" x1="-622.81" y1="-720.254" x2="844.384" y2="819.051" gradientUnits="userSpaceOnUse">
<stop stop-color="#F9A03C"/>
<stop offset="1" stop-color="#F7974E"/>
</linearGradient>
<linearGradient id="paint1_linear_1531_62674" x1="-968.312" y1="-956.72" x2="421.11" y2="352.223" gradientUnits="userSpaceOnUse">
<stop stop-color="#F9A03C"/>
<stop offset="1" stop-color="#F7974E"/>
</linearGradient>
<linearGradient id="paint2_linear_1531_62674" x1="-845.825" y1="-990.194" x2="377.758" y2="409.402" gradientUnits="userSpaceOnUse">
<stop stop-color="#F9A03C"/>
<stop offset="1" stop-color="#F7974E"/>
</linearGradient>
<linearGradient id="paint3_linear_1531_62674" x1="271.955" y1="-42.0498" x2="1922.9" y2="2194.34" gradientUnits="userSpaceOnUse">
<stop stop-color="#F26D58"/>
<stop offset="1" stop-color="#F9A03C"/>
</linearGradient>
<linearGradient id="paint4_linear_1531_62674" x1="247.663" y1="65.6634" x2="1921.64" y2="1047.43" gradientUnits="userSpaceOnUse">
<stop stop-color="#B84E51"/>
<stop offset="1" stop-color="#F68E48"/>
</linearGradient>
<linearGradient id="paint5_linear_1531_62674" x1="778.59" y1="224.909" x2="802.263" y2="1334.69" gradientUnits="userSpaceOnUse">
<stop stop-color="#F9A03C"/>
<stop offset="1" stop-color="#F7974E"/>
</linearGradient>
<clipPath id="clip0_1531_62674">
<rect width="24" height="23.4667" fill="white" transform="translate(0 0.533325)"/>
</clipPath>
</defs>
</svg>

<svg xmlns="http://www.w3.org/2000/svg" width="24" height="24" fill="none" viewBox="0 0 24 24">
    <mask id="a" width="24" height="24" x="0" y="0" maskUnits="userSpaceOnUse" style="mask-type:alpha">
        <path fill="#d9d9d9" d="M0 0h24v24H0z"/>
    </mask>
    <g clip-path="url(#b)">
        <path fill="url(#c)" d="M23.955 17.493q.015-.162.024-.326c.007-.129-7.552-7.518-7.552-7.518h-.181s7.662 8.326 7.709 7.844"/>
        <path fill="url(#d)" d="m7.825 14.93-.03.068q-.016.036-.033.07c-.24.518 3.374 4.158 3.665 3.716l.04-.06.043-.068c.233-.364-3.581-3.963-3.685-3.726"/>
        <path fill="url(#e)" d="M12.933 20.048c-.01.024-.083.15-.15.217-.01.023 3.53 3.64 3.53 3.64h.318s-3.323-3.704-3.698-3.857"/>
        <path fill="url(#f)" d="M23.984 17.102c-.166 3.78-3.202 6.803-6.911 6.803h-.502l-3.704-3.76c.305-.442.588-.9.84-1.379h3.366c1.064 0 1.93-.892 1.93-1.989s-.866-1.989-1.93-1.989H15.08a14.04 14.04 0 0 0-.007-5.14h1.237l7.651 7.767a9 9 0 0 0 .022-.313M2.012.533H0v5.14h2.012c3.515 0 6.375 2.944 6.375 6.565 0 .985-.213 1.92-.592 2.76l3.672 3.726a11.9 11.9 0 0 0 1.91-6.486C13.377 5.784 8.279.533 2.012.533"/>
        <path fill="url(#g)" d="M17.073.533h-8.15a13.63 13.63 0 0 1 4.762 5.14h3.388c1.064 0 1.93.891 1.93 1.988s-.866 1.989-1.93 1.989h-.761l7.65 7.765q.028-.314.03-.638a7.22 7.22 0 0 0-1.606-4.558 7.22 7.22 0 0 0 1.606-4.558c0-3.93-3.104-7.128-6.92-7.128"/>
        <path fill="url(#h)" d="M16.571 23.905h-7.59a13.6 13.6 0 0 0 3.886-3.76zm-5.105-5.18-3.67-3.727c-1.015 2.245-3.225 3.807-5.784 3.807H0v5.138h2.012c3.939 0 7.415-2.075 9.455-5.218"/>
    </g>
    <defs>
        <linearGradient id="c" x1="-622.81" x2="844.384" y1="-720.254" y2="819.051" gradientUnits="userSpaceOnUse">
            <stop stop-color="#f9a03c"/>
            <stop offset="1" stop-color="#f7974e"/>
        </linearGradient>
        <linearGradient id="d" x1="-968.312" x2="421.11" y1="-956.72" y2="352.223" gradientUnits="userSpaceOnUse">
            <stop stop-color="#f9a03c"/>
            <stop offset="1" stop-color="#f7974e"/>
        </linearGradient>
        <linearGradient id="e" x1="-845.825" x2="377.758" y1="-990.194" y2="409.402" gradientUnits="userSpaceOnUse">
            <stop stop-color="#f9a03c"/>
            <stop offset="1" stop-color="#f7974e"/>
        </linearGradient>
        <linearGradient id="f" x1="271.955" x2="1922.9" y1="-42.05" y2="2194.34" gradientUnits="userSpaceOnUse">
            <stop stop-color="#f26d58"/>
            <stop offset="1" stop-color="#f9a03c"/>
        </linearGradient>
        <linearGradient id="g" x1="247.663" x2="1921.64" y1="65.663" y2="1047.43" gradientUnits="userSpaceOnUse">
            <stop stop-color="#b84e51"/>
            <stop offset="1" stop-color="#f68e48"/>
        </linearGradient>
        <linearGradient id="h" x1="778.59" x2="802.263" y1="224.909" y2="1334.69" gradientUnits="userSpaceOnUse">
            <stop stop-color="#f9a03c"/>
            <stop offset="1" stop-color="#f7974e"/>
        </linearGradient>
        <clipPath id="b">
            <path fill="#fff" d="M0 .533h24V24H0z"/>
        </clipPath>
    </defs>
</svg>
